X: 35839
T: Salty Boys
R: reel
M: 4/4
K: Edorian
|:D EFGA|Bdef edBd|A3(A A2)GA|B2dB dBde|E3D EFGA|
Bdef edBd|A3(A A2)GA|B2dB dBGF|E3:|
|:(E E)eee|efgf edBA|B3A Bcd2|e3A Bcd2|
efed BAGB|A3(A A)BGB|A3(A A)BGB|
ABAG EDB,D|E2=CD EFGA|B=cBA GEDB,|E3:|

